!!!COM: Music21
!!!OTL: Foliada das Rias Baixas
!!!OMV: pezas_foliadas_foliada-das-rias-baixas_foliada-das-rias-baixas-partitura-1.musicxml
**kern
*part1
*staff1
*I"Bagpipes
*I'Bag
*clefG^2
*k[]
*M3/4
=1
!LO:TX:a:t=Prestissimo
*MM200
!LO:TX:a:t=[quarter]=200
4r
8ccL
8eeJ
8ccL
8eeJ
=||
8ccL
8eeJ
16aa^LL
16ggJ
8ffJ
8ddL
8eeJ
=
4cc
8ccL
8eeJ
8ccL
8eeJ
=
8ccL
8eeJ
16aa^LL
16ggJ
8ffJ
8eeL
8ffJ
=
4dd
16bKL
8.ddJ
16bKL
8.ddJ
=
8ggML
8ffJ
16bKL
8.ddJ
16bKL
8.ddJ
!!linebreak:original
=
8ggML
8ffJ
16bKL
8.ddJ
16bKL
8.ddJ
!!linebreak:original
=
8ggL
8aaMJ
8ggL
8ffJ
8eeL
8ddJ
=
4cc
8ccL
8eeJ
8ccL
8eeJ
=||
8ccL
8eeJ
16aa^LL
16ggJ
8ffJ
8ddL
8eeJ
=
4cc
8ccL
8eeJ
8ccL
8eeJ
=
8ccL
8eeJ
16aa^LL
16ggJ
8ffJ
8eeL
8ffJ
=
4dd
16bKL
8.ddJ
16bKL
8.ddJ
=
8ggML
8ffJ
16bKL
8.ddJ
16bKL
8.ddJ
!!linebreak:original
=
8ggML
8ffJ
16bKL
8.ddJ
16bKL
8.ddJ
!!linebreak:original
=
8ggL
8aaMJ
8ggL
8ffJ
8eeL
8ddJ
=
4cc
8ccL
8ddJ
8eeL
8ffJ
=
8ggL
8aaJ
8ggL
8ffJ
8eeL
8ddJ
=
4cc
8ee^L
8ffJ
8ggML
8eeJ
=
8ffL
8ggJ
8ffL
8eeJ
8ddL
8ccJ
=
4b
16aa^LL
16ggJ
8ffJ
8ddL
8ffJ
=
8ggL
8ffJ
8ddL
8ffJ
8ddL
8ffJ
!!linebreak:original
=
16aa^LL
16ggJ
8ffJ
8ddL
8ffJ
8ddL
8ffJ
=
8ggL
8aaJ
8ggL
8ffJ
8eeL
8ddJ
=||
[2.cc
=
4cc]
8ggL
8ggJ
4gg
=
4gg
4.gg
8aa
=
8.bbL
16cccJk
8bbL
8aaJ
[4gg
=
2.gg_
=
4gg]
8eeL
8ggJ
4ccc
=
4ccc
4.ccc
8ccc
!!pagebreak:original
=
4bb
8aaL
8ggJ
4ff
!!linebreak:original
=
[2.ff
=
4ff]
8ggL
8ggJ
4gg
=
4gg
4.gg
8aa
=
8.bbL
16cccJk
8bbL
8aaJ
[4gg
=
2.gg_
=
4gg]
8eeL
8ggJ
4ccc
=||
4ccc
4ccc
4ccc
=
4bb
12aaL
12bb
12aaJ
4gg
=
4bbt
4aa
8bbL
8aaJ
=
12bbL
12ccc
12bbJ
8aaL
8ggJ
[4ff
!!linebreak:original
=
4ff]
4aa
4bb
=
4aa
8ggL
8ffJ
[4ee
=
2.ee_
=
4ee]
8eeL
8ggJ
4ccc
=||
4ccc
4ccc
4ccc
=
4bb
12aaL
12bb
12aaJ
4gg
=
4bbt
4aa
8bbL
8aaJ
=
12bbL
12ccc
12bbJ
8aaL
8ggJ
[4ff
!!linebreak:original
=
4ff]
4aa
4bb
=
4aa
8ggL
8ffJ
[4ee
=
4ee]
8ccL
8eeJ
8ccL
8eeJ
=||
8cc
8r
2r
==
*-
!!!system-decoration: s1,s2
